app/img/icomoon/sun.svg

<svg width="16" height="16" viewBox="0 0 16 16" fill="none" xmlns="http://www.w3.org/2000/svg">
<path d="M3.996 8C3.996 10.2088 5.7928 12.0056 8.0016 12.0056C10.2104 12.0056 12.0072 10.2088 12.0072 8C12.0072 5.7912 10.2104 3.9944 8.0016 3.9944C5.7928 3.9944 3.996 5.7912 3.996 8ZM8.0016 5.5944C9.328 5.5944 10.4072 6.6736 10.4072 8C10.4072 9.3264 9.328 10.4056 8.0016 10.4056C6.6752 10.4056 5.596 9.3264 5.596 8C5.596 6.6736 6.6752 5.5944 8.0016 5.5944ZM7.2 13.6H8.8V16H7.2V13.6ZM7.2 0H8.8V2.4H7.2V0ZM0 7.2H2.4V8.8H0V7.2ZM13.6 7.2H16V8.8H13.6V7.2Z" fill="white"/>
<path d="M1.77656 13.0904L3.47256 11.3928L4.60456 12.524L2.90856 14.2216L1.77656 13.0904Z" fill="white"/>
<path d="M11.3938 3.47514L13.0913 1.77754L14.2225 2.90874L12.525 4.60634L11.3938 3.47514Z" fill="white"/>
<path d="M3.47494 4.60712L1.77734 2.90952L2.90934 1.77832L4.60534 3.47592L3.47494 4.60712Z" fill="white"/>
<path d="M14.2225 13.0912L13.0913 14.2224L11.3938 12.5248L12.525 11.3936L14.2225 13.0912Z" fill="white"/>
</svg>

<svg width="16" height="16" fill="none" xmlns="http://www.w3.org/2000/svg"><path d="M3.996 8a4.01 4.01 0 004.006 4.006A4.01 4.01 0 0012.007 8a4.01 4.01 0 00-4.005-4.006A4.01 4.01 0 003.996 8zm4.006-2.406A2.408 2.408 0 0110.407 8a2.408 2.408 0 01-2.405 2.406A2.408 2.408 0 015.596 8a2.408 2.408 0 012.406-2.406zM7.2 13.6h1.6V16H7.2v-2.4zM7.2 0h1.6v2.4H7.2V0zM0 7.2h2.4v1.6H0V7.2zm13.6 0H16v1.6h-2.4V7.2zM1.777 13.09l1.696-1.697 1.132 1.131-1.696 1.698-1.132-1.132zm9.617-9.615l1.697-1.697 1.132 1.13-1.698 1.698-1.131-1.13zM3.475 4.607L1.777 2.91 2.91 1.778l1.696 1.698-1.13 1.131zm10.748 8.484l-1.132 1.131-1.697-1.697 1.131-1.131 1.697 1.697z" fill="#fff"/></svg>
